X:92
T:B092-  Crimson Velvet
S:(1st/2)
Q:1/4=120
L:1/4
M:3/2
K:Gdorian
G3/2A/2BA/2G/2A2|G3/2A/2BA/2G/2^F(D|D2)B3/2 B/2 ce|d2B3/2c/2AA|\
GG3z2::d3/2 d/2dcB2|A3/2B/2cBA2|G3/2A/2Bd c/2B/2A/2G/2|\
A2z4::A A/2A/2 A3/2 A/2^FD|AA/2A/2d3/2c/2=BG|\
c3/2c/2=B3/2 B/2AA|G6:|]

